X: 172
T: Nande jinri you xiangfeng
L: 1/8
M: 3/4
K: G
d B/ d/ B B [I:setbarnb 1]| 
d B/ d/ B B | 
d B2<d2B | 
[M:2/4]d Bd2- | 
d4 | 
B d e B | 
B d d B/ B/ | 
d Bd2 | 
[M:3/4]d B2<d2B | 
[M:2/4]d B d B | 
d4 | 
A Bd2- | 
d4 | 
B Bd2- | 
d4 | 
d B e e | 
d4 | 
d B e e | 
d4 |]

@@@ Tune index: 8840
